svg/fluentui-system-icons/ic_fluent_contract_down_left_20_regular.svg

<svg width="20" height="20" viewBox="0 0 20 20" fill="none" xmlns="http://www.w3.org/2000/svg">
<path d="M12.7071 8L16.8536 3.85355C17.0488 3.65829 17.0488 3.34171 16.8536 3.14645C16.6583 2.95118 16.3417 2.95118 16.1464 3.14645L12 7.29289V3.5C12 3.22386 11.7761 3 11.5 3C11.2239 3 11 3.22386 11 3.5V8.5C11 8.77614 11.2239 9 11.5 9H16.5C16.7761 9 17 8.77614 17 8.5C17 8.22386 16.7761 8 16.5 8H12.7071ZM4 6C4 4.89543 4.89543 4 6 4H8.5C8.77614 4 9 3.77614 9 3.5C9 3.22386 8.77614 3 8.5 3H6C4.34315 3 3 4.34315 3 6V14C3 15.6569 4.34315 17 6 17H14C15.6569 17 17 15.6569 17 14V11.5C17 11.2239 16.7761 11 16.5 11C16.2239 11 16 11.2239 16 11.5V14C16 15.1046 15.1046 16 14 16H10V12C10 10.8954 9.10457 10 8 10H4V6ZM4 11H8C8.55228 11 9 11.4477 9 12V16H6C4.89543 16 4 15.1046 4 14V11Z" fill="#212121"/>
</svg>

<svg xmlns="http://www.w3.org/2000/svg" width="20" height="20"><path d="m12.707 8 4.147-4.146a.5.5 0 0 0-.708-.708L12 7.293V3.5a.5.5 0 0 0-1 0v5a.5.5 0 0 0 .5.5h5a.5.5 0 0 0 0-1h-3.793ZM4 6a2 2 0 0 1 2-2h2.5a.5.5 0 0 0 0-1H6a3 3 0 0 0-3 3v8a3 3 0 0 0 3 3h8a3 3 0 0 0 3-3v-2.5a.5.5 0 0 0-1 0V14a2 2 0 0 1-2 2h-4v-4a2 2 0 0 0-2-2H4V6Zm0 5h4a1 1 0 0 1 1 1v4H6a2 2 0 0 1-2-2v-3Z"/></svg>
